X:3
T:Tralee Gaol
R:polka
M:2/4
L:1/8
K:Ador
|: eA AB/2d/2 | e>d Bd | eA AB/2A/2 | G>A Bd |
eA AB/2d/2 | e/2f/2e/2d/2 Bd | ed/2e/2 gB | BA A2 :|
|: ea ag/a/ | b>a ge | dB gB | d/c/B/A/ Bd |
ea ag/a/ | b>a ge |  ed/2e/2 gB | BA A2 :|

